**kern	**silbe	**kern	**silbe	**harmony	**phrase	**leadinstrument	**rhyme	**timestamp	**harte
*ICvox	*	*ICvox	*	*M4/4	*	*	*	*	*M4/4
*VRlead	*	*VRbacking*VRharmonize	*	*	*	*	*	*	*
*Hstimme	*	*Nstimme	*	*	*	*	*	*	*
*B-:	*	*B-:	*	*B-:	*	*	*	*	*B-:
*M4/4	*	*M4/4	*	*	*	*	*	*	*
*clefGv2	*	*clefG2	*	*	*	*	*	*	*
r;	.	1r	.	1r;	.	r	.	0	N.C.
=1	=1	=1	=1	=1	=1	=1	=1	=1	=1
*>Letter>A	*>Letter>A	*>Letter>A	*>Letter>A	*>Letter>A	*>Letter>A	*>Letter>A	*>Letter>A	*>Letter>A	*>Letter>A
*>Label>Intro	*>Label>Intro	*>Label>Intro	*>Label>Intro	*>Label>Intro	*>Label>Intro	*>Label>Intro	*>Label>Intro	*>Label>Intro	*>Label>Intro
1r	.	1r	.	4B-M	newline	r	.	0.348	B-:maj
.	.	.	.	4E-Mm	.	r	.	0.962	E-:7/5
.	.	.	.	4B-M	.	r	.	1.575	B-:maj
.	.	.	.	4E-Mm	.	r	.	2.188	E-:7/5
=2	=2	=2	=2	=2	=2	=2	=2	=2	=2
1r	.	1r	.	4B-M	.	r	.	2.802	B-:maj
.	.	.	.	4E-Mm	.	r	.	3.415	E-:7/5
.	.	.	.	4B-M	.	r	.	4.028	B-:maj
.	.	.	.	4E-Mm	.	r	.	4.642	E-:7/5
=3	=3	=3	=3	=3	=3	=3	=3	=3	=3
1r	.	1r	.	4B-M	.	r	.	5.255	B-:maj
.	.	.	.	4E-Mm	.	r	.	5.868	E-:7/5
.	.	.	.	4B-M	.	r	.	6.481	B-:maj
.	.	.	.	4E-Mm	.	r	.	7.095	E-:7/5
=4	=4	=4	=4	=4	=4	=4	=4	=4	=4
*>Letter>B	*>Letter>B	*>Letter>B	*>Letter>B	*>Letter>B	*>Letter>B	*>Letter>B	*>Letter>B	*>Letter>B	*>Letter>B
*>Label>Verse	*>Label>Verse	*>Label>Verse	*>Label>Verse	*>Label>Verse	*>Label>Verse	*>Label>Verse	*>Label>Verse	*>Label>Verse	*>Label>Verse
8.F	All	1r	.	1B-M	newline	voice	.	7.708	B-:maj
[16G	the	.	.	.	.	.	.	.	.
8G]	_	.	.	.	.	.	.	.	.
[8B-	wai	.	.	.	.	.	A	.	.
16B-]	_	.	.	.	.	.	.	.	.
8.F	ters	.	.	.	.	.	.	.	.
8G	in	.	.	.	.	.	.	.	.
8B-	your	.	.	.	.	.	.	.	.
=5	=5	=5	=5	=5	=5	=5	=5	=5	=5
8.G	grand	1r	.	1CMm	.	voice	.	10.124	C:7
[16A	ca	.	.	.	.	.	.	.	.
8A]	_	.	.	.	.	.	.	.	.
[8c	fe	.	.	.	.	.	A	.	.
8c]	_	.	.	.	.	.	.	.	.
8r	.	.	.	.	.	.	.	.	.
4r	.	.	.	.	.	.	.	.	.
=6	=6	=6	=6	=6	=6	=6	=6	=6	=6
8.c	leave	1r	.	1FMm	.	voice	.	12.54	F:7
[16d	their	.	.	.	.	.	.	.	.
8d]	_	.	.	.	.	.	.	.	.
[8f	ta	.	.	.	.	.	A	.	.
16f]	_	.	.	.	.	.	.	.	.
8.c	bles	.	.	.	.	.	.	.	.
8d	when	.	.	.	.	.	.	.	.
8f	you	.	.	.	.	.	.	.	.
=7	=7	=7	=7	=7	=7	=7	=7	=7	=7
8d	blink	1r	.	2B-M	.	voice	B	14.956	B-:maj
8r	.	.	.	.	.	.	.	.	.
8r	.	.	.	.	.	.	.	.	.
16~d-	oh	.	.	.	.	.	.	.	.
[16c	_	.	.	.	.	.	.	.	.
4c]	_	.	.	2E-M	.	voice	.	16.163	E-:maj/5
16~d-	_	.	.	.	.	.	.	.	.
16c	_	.	.	.	.	.	.	.	.
16B-	_	.	.	.	.	.	.	.	.
16G	_	.	.	.	.	.	.	.	.
=8	=8	=8	=8	=8	=8	=8	=8	=8	=8
8.F	ev-	1r	.	1B-M	newline	voice	.	17.371	B-:maj
[16G	-'ry	.	.	.	.	.	.	.	.
8G]	_	.	.	.	.	.	.	.	.
8B-	dog	.	.	.	.	.	.	.	.
16r	.	.	.	.	.	.	.	.	.
8.F	must	.	.	.	.	.	.	.	.
8G	have	.	.	.	.	.	.	.	.
8B-	his	.	.	.	.	.	.	.	.
=9	=9	=9	=9	=9	=9	=9	=9	=9	=9
8.G	ev-	1r	.	1CMm	.	voice	.	19.801	C:7
[16A	-'ry	.	.	.	.	.	.	.	.
8A]	_	.	.	.	.	.	.	.	.
[8c	day	.	.	.	.	.	A	.	.
8c]	_	.	.	.	.	.	.	.	.
8r	.	.	.	.	.	.	.	.	.
4r	.	.	.	.	.	.	.	.	.
=10	=10	=10	=10	=10	=10	=10	=10	=10	=10
8.c	ev-	1r	.	1FMm	.	voice	.	22.232	F:7
[16d	-'ry	.	.	.	.	.	.	.	.
8d]	_	.	.	.	.	.	.	.	.
8f	drunk	.	.	.	.	.	.	.	.
16r	.	.	.	.	.	.	.	.	.
8.c	must	.	.	.	.	.	.	.	.
8d	have	.	.	.	.	.	.	.	.
8f	his	.	.	.	.	.	.	.	.
=11	=11	=11	=11	=11	=11	=11	=11	=11	=11
8cq	_	.	.	.	.	.	.	.	.
8d	drink	1r	.	2B-M	.	voice	B	24.662	B-:maj
8r	.	.	.	.	.	.	.	.	.
8r	.	.	.	.	.	.	.	.	.
16d	Don't	.	.	.	.	.	.	.	.
16B-Q	_	.	.	.	.	.	.	.	.
[16c	wait	.	.	.	.	.	A	.	.
4.c]	_	.	.	2DMm	.	voice	.	25.877	D:7/5
16d	for	.	.	.	.	.	.	.	.
[16B-	an	.	.	.	.	.	(C	.	.
=12	=12	=12	=12	=12	=12	=12	=12	=12	=12
*>Letter>C	*>Letter>C	*>Letter>C	*>Letter>C	*>Letter>C	*>Letter>C	*>Letter>C	*>Letter>C	*>Letter>C	*>Letter>C
*>Label>Chorus	*>Label>Chorus	*>Label>Chorus	*>Label>Chorus	*>Label>Chorus	*>Label>Chorus	*>Label>Chorus	*>Label>Chorus	*>Label>Chorus	*>Label>Chorus
16B-]	_	1r	.	2Gm	newline	voice	.	27.092	G:min
8.G	swers	.	.	.	.	.	c)	.	.
8r	.	.	.	.	.	.	.	.	.
16d	just	.	.	.	.	.	.	.	.
16B-Q	_	.	.	.	.	.	.	.	.
[16c	take	.	.	.	.	.	A	.	.
4.c]	_	.	.	2B-Mm	.	voice	.	28.311	B-:7/5
16d	your	.	.	.	.	.	.	.	.
[16B-	chan	.	.	.	.	.	(C	.	.
=13	=13	=13	=13	=13	=13	=13	=13	=13	=13
16B-]	_	1r	.	2Edm	.	voice	.	29.53	E:hdim7
8.G	ces	.	.	.	.	.	c)	.	.
8r	.	.	.	.	.	.	.	.	.
8~cq	_	.	.	.	.	.	.	.	.
16~d-	don't	.	.	.	.	.	.	.	.
[16c	ask	.	.	.	.	.	.	.	.
4c]	_	.	.	2FM	.	voice	.	30.75	F:sus4(b7)
8r	.	.	.	.	.	.	.	.	.
16B-	me	.	.	.	.	.	.	.	.
[16B-	why	.	.	.	.	.	.	.	.
=14	=14	=14	=14	=14	=14	=14	=14	=14	=14
4.B-]	_	1r	.	4B-M	.	voice	.	31.969	B-:maj
.	.	.	.	4E-Mm	.	voice	.	32.579	E-:7/5
8r	.	.	.	.	.	.	.	.	.
2r	.	.	.	4B-M	.	voice	.	33.188	B-:maj
.	.	.	.	4E-Mm	.	voice	.	33.798	E-:7/5
=15	=15	=15	=15	=15	=15	=15	=15	=15	=15
1r	.	1r	.	4B-M	.	voice	.	34.408	B-:maj
.	.	.	.	4E-Mm	.	voice	.	35.017	E-:7/5
.	.	.	.	4B-M	.	voice	.	35.627	B-:maj
.	.	.	.	4E-Mm	.	voice	.	36.237	E-:7/5
=16	=16	=16	=16	=16	=16	=16	=16	=16	=16
*>Letter>B	*>Letter>B	*>Letter>B	*>Letter>B	*>Letter>B	*>Letter>B	*>Letter>B	*>Letter>B	*>Letter>B	*>Letter>B
*>Label>Verse	*>Label>Verse	*>Label>Verse	*>Label>Verse	*>Label>Verse	*>Label>Verse	*>Label>Verse	*>Label>Verse	*>Label>Verse	*>Label>Verse
8.F	All	1r	.	1B-M	newline	voice	.	36.846	B-:maj
[16G	your	.	.	.	.	.	.	.	.
8G]	_	.	.	.	.	.	.	.	.
8B-	life	.	.	.	.	.	D	.	.
16r	.	.	.	.	.	.	.	.	.
8.F	you	.	.	.	.	.	.	.	.
8G	had	.	.	.	.	.	.	.	.
8B-	to	.	.	.	.	.	.	.	.
=17	=17	=17	=17	=17	=17	=17	=17	=17	=17
8.G	stand	1r	.	1CMm	.	voice	.	39.266	C:7
[16A	in	.	.	.	.	.	.	.	.
8A]	_	.	.	.	.	.	.	.	.
[8c	line	.	.	.	.	.	D	.	.
4c]	_	.	.	.	.	.	.	.	.
4r	.	.	.	.	.	.	.	.	.
=18	=18	=18	=18	=18	=18	=18	=18	=18	=18
8.c	still	1r	.	1FMm	.	voice	.	41.686	F:7
[16d	you're	.	.	.	.	.	.	.	.
8d]	_	.	.	.	.	.	.	.	.
[8f	stan	.	.	.	.	.	.	.	.
16f]	_	.	.	.	.	.	.	.	.
8.c	ding	.	.	.	.	.	.	.	.
8d	on	.	.	.	.	.	.	.	.
8f	your	.	.	.	.	.	.	.	.
=19	=19	=19	=19	=19	=19	=19	=19	=19	=19
8d	feet	1r	.	2B-M	.	voice	E	44.106	B-:maj
8r	.	.	.	.	.	.	.	.	.
8r	.	.	.	.	.	.	.	.	.
16d	Oh	.	.	.	.	.	.	.	.
[16c	_	.	.	.	.	.	.	.	.
4c]	_	.	.	2E-M	.	voice	.	45.316	E-:maj/5
16d	_	.	.	.	.	.	.	.	.
16c	_	.	.	.	.	.	.	.	.
16B-	_	.	.	.	.	.	.	.	.
16G	_	.	.	.	.	.	.	.	.
=20	=20	=20	=20	=20	=20	=20	=20	=20	=20
8.F	all	1r	.	1B-M	newline	voice	.	46.526	B-:maj
[16G	the	.	.	.	.	.	.	.	.
8G]	_	.	.	.	.	.	.	.	.
[8B-	choi	.	.	.	.	.	.	.	.
16B-]	_	.	.	.	.	.	.	.	.
16F	ces	.	.	.	.	.	.	.	.
8r	.	.	.	.	.	.	.	.	.
8G	made	.	.	.	.	.	.	.	.
8B-	you	.	.	.	.	.	.	.	.
=21	=21	=21	=21	=21	=21	=21	=21	=21	=21
8.G	change	1r	.	1CMm	.	voice	.	48.973	C:7
[16A	your	.	.	.	.	.	.	.	.
8A]	_	.	.	.	.	.	.	.	.
[8c	mind	.	.	.	.	.	D	.	.
4c]	_	.	.	.	.	.	.	.	.
4r	.	.	.	.	.	.	.	.	.
=22	=22	=22	=22	=22	=22	=22	=22	=22	=22
8.c	now	1r	.	1FMm	.	voice	.	51.421	F:7
[16d	your	.	.	.	.	.	.	.	.
8d]	_	.	.	.	.	.	.	.	.
[8f	ca	.	.	.	.	.	.	.	.
16f]	_	.	.	.	.	.	.	.	.
8.c	len-	.	.	.	.	.	.	.	.
8d	-dar's	.	.	.	.	.	.	.	.
8f	com	.	.	.	.	.	.	.	.
=23	=23	=23	=23	=23	=23	=23	=23	=23	=23
8cq	_	.	.	.	.	.	.	.	.
8d	plete	1r	.	2B-M	.	voice	E	53.869	B-:maj
8r	.	.	.	.	.	.	.	.	.
8r	.	.	.	.	.	.	.	.	.
16d-	don't	.	.	.	.	.	.	.	.
16B-Q	_	.	.	.	.	.	.	.	.
[16c	wait	.	.	.	.	.	A	.	.
4.c]	_	.	.	2DMm	.	voice	.	55.093	D:7/5
16~d-	for	.	.	.	.	.	.	.	.
[16B-	an	.	.	.	.	.	(C	.	.
=24	=24	=24	=24	=24	=24	=24	=24	=24	=24
*>Letter>C	*>Letter>C	*>Letter>C	*>Letter>C	*>Letter>C	*>Letter>C	*>Letter>C	*>Letter>C	*>Letter>C	*>Letter>C
*>Label>Chorus	*>Label>Chorus	*>Label>Chorus	*>Label>Chorus	*>Label>Chorus	*>Label>Chorus	*>Label>Chorus	*>Label>Chorus	*>Label>Chorus	*>Label>Chorus
16B-]	_	1r	.	2Gm	newline	voice	.	56.316	G:min
8.G	swers	.	.	.	.	.	c)	.	.
8r	.	.	.	.	.	.	.	.	.
16~B-	just	.	.	.	.	.	.	.	.
8B-q	_	.	.	.	.	.	.	.	.
[16c	take	.	.	.	.	.	A	.	.
4.c]	_	.	.	2B-Mm	.	voice	.	57.526	B-:7/5
16~d	your	.	.	.	.	.	.	.	.
[16B-	chan	.	.	.	.	.	(C	.	.
=25	=25	=25	=25	=25	=25	=25	=25	=25	=25
16B-]	_	1r	.	2Edm	.	voice	.	58.736	E:hdim7
8.G	ces	.	.	.	.	.	c)	.	.
8r	.	.	.	.	.	.	.	.	.
8~cq	_	.	.	.	.	.	.	.	.
16~d-	don't	.	.	.	.	.	.	.	.
[16c	ask	.	.	.	.	.	.	.	.
4c]	_	.	.	2FM	.	voice	.	59.946	F:sus4(b7)
8B-	_	.	.	.	.	.	.	.	.
16B-	me	.	.	.	.	.	.	.	.
[16B-	why	.	.	.	.	.	.	.	.
=26	=26	=26	=26	=26	=26	=26	=26	=26	=26
2B-]	_	1r	.	4B-M	.	voice	.	61.155	B-:maj
.	.	.	.	4E-Mm	.	voice	.	61.76	E-:7/5
2r	.	.	.	4B-M	.	voice	.	62.365	B-:maj
.	.	.	.	4E-Mm	.	voice	.	62.97	E-:7/5
=27	=27	=27	=27	=27	=27	=27	=27	=27	=27
2r	.	1r	.	4B-M	.	voice	.	63.575	B-:maj
.	.	.	.	4E-Mm	.	voice	.	64.18	E-:7/5
8r	.	.	.	4B-M	.	voice	.	64.785	B-:maj
[8c	Mmm,	.	.	.	.	.	.	.	.
16c]	_	.	.	4E-Mm	.	voice	.	65.39	E-:7/5
8.c	_	.	.	.	.	.	.	.	.
=28	=28	=28	=28	=28	=28	=28	=28	=28	=28
*>Letter>D	*>Letter>D	*>Letter>D	*>Letter>D	*>Letter>D	*>Letter>D	*>Letter>D	*>Letter>D	*>Letter>D	*>Letter>D
*>Label>Bridge	*>Label>Bridge	*>Label>Bridge	*>Label>Bridge	*>Label>Bridge	*>Label>Bridge	*>Label>Bridge	*>Label>Bridge	*>Label>Bridge	*>Label>Bridge
16c	you	1r	.	1FM	newline	voice	.	65.994	F:maj
8.c	can	.	.	.	.	.	.	.	.
8.c	say	.	.	.	.	.	.	.	.
16B-	the	.	.	.	.	.	.	.	.
16c	hu-	.	.	.	.	.	.	.	.
8c	-man	.	.	.	.	.	.	.	.
16cQ	_	.	.	.	.	.	.	.	.
[16d	heart	.	.	.	.	.	.	.	.
8d]	_	.	.	.	.	.	.	.	.
16c	is	.	.	.	.	.	.	.	.
[16c	on	.	.	.	.	.	.	.	.
=29	=29	=29	=29	=29	=29	=29	=29	=29	=29
8c]	_	1r	.	1E-M	.	voice	.	68.422	E-:maj
16B-	ly	.	.	.	.	.	.	.	.
[16B-	make	.	.	.	.	.	.	.	.
8B-]	_	.	.	.	.	.	.	.	.
16G	be-	.	.	.	.	.	.	.	.
[16B-	-lieve	.	.	.	.	.	D	.	.
8B-]	_	.	.	.	.	.	.	.	.
8r	.	.	.	.	.	.	.	.	.
4r	.	.	.	.	.	.	.	.	.
=30	=30	=30	=30	=30	=30	=30	=30	=30	=30
16A	I	1r	.	1FM	.	voice	.	70.849	F:maj
8A	am	.	.	.	.	.	.	.	.
[16A	on	.	.	.	.	.	.	.	.
8A]	_	.	.	.	.	.	.	.	.
8B-	ly	.	.	.	.	.	.	.	.
16c	figh-	.	.	.	.	.	.	.	.
8B-	-ting	.	.	.	.	.	.	.	.
16B-	fi-	.	.	.	.	.	(E	.	.
8A	-re	.	.	.	.	.	e)	.	.
8G	with	.	.	.	.	.	.	.	.
=31	=31	=31	=31	=31	=31	=31	=31	=31	=31
16G	fi-	1r	.	1B-M	.	voice	(E	73.276	B-:maj
8.F	-re	.	.	.	.	.	e)	.	.
4r	.	.	.	.	.	.	.	.	.
4r	.	.	.	.	.	.	.	.	.
8.r	.	.	.	.	.	.	.	.	.
16~BB-	But	.	.	.	.	.	.	.	.
=32	=32	=32	=32	=32	=32	=32	=32	=32	=32
16B	you	16d	you	1GM	newline	voice	.	75.704	G:maj
8.B	are	8.d	are	.	.	.	.	.	.
8B	still	8d	still	.	.	.	.	.	.
16c	a	16e	a	.	.	.	.	.	.
[16d	vic	[16f	vic	.	.	.	.	.	.
16d]	_	16f]	_	.	.	.	.	.	.
8.c	tim	8.e	tim	.	.	.	.	.	.
16cQ	_	16eQ	_	.	.	.	.	.	.
8B	of	8d	of	.	.	.	.	.	.
16A	the	16d	the	.	.	.	.	.	.
[16A	ac	[16d	ac	.	.	.	.	.	.
=33	=33	=33	=33	=33	=33	=33	=33	=33	=33
8A]	_	8d]	_	1CM	.	voice	.	78.144	C:maj
16G	ci-	16c	ci-	.	.	.	.	.	.
[16G	-dents	[16c	-dents	.	.	.	.	.	.
8G]	_	8c]	_	.	.	.	.	.	.
16~F	you	16~A	you	.	.	.	.	.	.
[16G	leave	[16c	leave	.	.	.	D	.	.
8G]	_	8c]	_	.	.	.	.	.	.
8r	.	8r	.	.	.	.	.	.	.
4r	.	4r	.	.	.	.	.	.	.
=34	=34	=34	=34	=34	=34	=34	=34	=34	=34
16B	sure	16d	sure	1GM	.	voice	.	80.584	G:maj
8.B	as	8.d	as	.	.	.	.	.	.
8B	I'm	8d	I'm	.	.	.	.	.	.
16c	a	16e-	a	.	.	.	.	.	.
16d	vic	16f	vic	.	.	.	.	.	.
16r	.	16r	.	.	.	.	.	.	.
8.d	tim	8.f	tim	.	.	.	.	.	.
16e	of	16g	of	.	.	.	.	.	.
16d	_	16f	_	.	.	.	.	.	.
16c	de-	16e	de-	.	.	.	.	.	.
[16c	-sire,	[16e	-sire,	.	.	.	E	.	.
=35	=35	=35	=35	=35	=35	=35	=35	=35	=35
2c]	_	2e]	_	2CMm	.	voice	.	83.025	C:7
8.B-	yeah,	8.d	yeah,	2FMm	.	voice	.	84.245	F:7
[16A	yeah,	[16c	yeah,	.	.	.	.	.	.
8A]	_	8c]	_	.	.	.	.	.	.
8G	yeah,	8B-	yeah,	.	.	.	.	.	.
=36	=36	=36	=36	=36	=36	=36	=36	=36	=36
*>Letter>B	*>Letter>B	*>Letter>B	*>Letter>B	*>Letter>B	*>Letter>B	*>Letter>B	*>Letter>B	*>Letter>B	*>Letter>B
*>Label>Verse	*>Label>Verse	*>Label>Verse	*>Label>Verse	*>Label>Verse	*>Label>Verse	*>Label>Verse	*>Label>Verse	*>Label>Verse	*>Label>Verse
8.F	all	8.D 8.B-	all	1B-M	newline	voice	.	85.465	B-:maj
[16G	the	[16E- [16c	the	.	.	.	.	.	.
8G]	_	8E-] 8c]	_	.	.	.	.	.	.
[8B-	ser	[8F [8d	ser	.	.	.	.	.	.
16B-]	_	16F] 16d]	_	.	.	.	.	.	.
16F	vants	16D 16B-	vants	.	.	.	.	.	.
8r	.	8r	.	.	.	.	.	.	.
8G	in	8E- 8c	in	.	.	.	.	.	.
8B-	your	8F 8d	your	.	.	.	.	.	.
=37	=37	=37	=37	=37	=37	=37	=37	=37	=37
8.G	new	8.E 8.c	new	1CMm	.	voice	.	87.909	C:7
[16A	ho	[16F [16d	ho	.	.	.	.	.	.
8A]	_	8F] 8d]	_	.	.	.	.	.	.
[8c	tel	[8G [8e	tel	.	.	.	.	.	.
8c]	_	8G] 8e]	_	.	.	.	.	.	.
8r	.	8r	.	.	.	.	.	.	.
4r	.	4r	.	.	.	.	.	.	.
=38	=38	=38	=38	=38	=38	=38	=38	=38	=38
8.c	throw	1r	.	1FMm	.	voice	.	90.354	F:7
[16d	their	.	.	.	.	.	.	.	.
8d]	_	.	.	.	.	.	.	.	.
[8f	ro	.	.	.	.	.	.	.	.
16f]	_	.	.	.	.	.	.	.	.
8.c	ses	.	.	.	.	.	.	.	.
8d	at	.	.	.	.	.	.	.	.
8f	your	.	.	.	.	.	.	.	.
=39	=39	=39	=39	=39	=39	=39	=39	=39	=39
8d	feet	1r	.	2B-M	.	voice	F	92.799	B-:maj
8r	.	.	.	.	.	.	.	.	.
8r	.	.	.	.	.	.	.	.	.
16d	Oh	.	.	.	.	.	.	.	.
[16c	_	.	.	.	.	.	.	.	.
4c]	_	.	.	2E-M	.	voice	.	94.021	E-:maj/5
16~d-	_	.	.	.	.	.	.	.	.
16c	_	.	.	.	.	.	.	.	.
16B-	_	.	.	.	.	.	.	.	.
16G	_	.	.	.	.	.	.	.	.
=40	=40	=40	=40	=40	=40	=40	=40	=40	=40
8.F	fool	8.D 8.B-	fool	1B-M	newline	voice	.	95.243	B-:maj
[16G	them	[16E- [16c	them	.	.	.	.	.	.
8G]	_	8E-] 8c]	_	.	.	.	.	.	.
[8B-	all,	[8F [8d	all,	.	.	.	.	.	.
16B-]	_	16F] 16d]	_	.	.	.	.	.	.
16F	but	16D 16B-	but	.	.	.	.	.	.
8r	.	8r	.	.	.	.	.	.	.
8G	ba-	8E- 8c	ba-	.	.	.	A	.	.
8B-	-by	8F 8d	-by	.	.	.	.	.	.
=41	=41	=41	=41	=41	=41	=41	=41	=41	=41
8.G	I	8.E 8.c	I	1CMm	.	voice	.	97.685	C:7
[16A	can	[16F [16d	can	.	.	.	.	.	.
8A]	_	8F] 8d]	_	.	.	.	.	.	.
[8c	tell	[8G [8e	tell	.	.	.	.	.	.
8c]	_	8G] 8e]	_	.	.	.	.	.	.
8r	.	8r	.	.	.	.	.	.	.
4r	.	4r	.	.	.	.	.	.	.
=42	=42	=42	=42	=42	=42	=42	=42	=42	=42
8.c	you're	1r	.	1FMm	.	voice	.	100.127	F:7
[16d	no	.	.	.	.	.	.	.	.
8d]	_	.	.	.	.	.	.	.	.
[8f	stran	.	.	.	.	.	A	.	.
16f]	_	.	.	.	.	.	.	.	.
8.c	ger	.	.	.	.	.	.	.	.
8d	to	.	.	.	.	.	.	.	.
8f	the	.	.	.	.	.	.	.	.
=43	=43	=43	=43	=43	=43	=43	=43	=43	=43
8d	street	2d 2f	Ooh!	2B-M	.	voice	F	102.568	B-:maj
8r	.	.	.	.	.	.	.	.	.
8r	.	.	.	.	.	.	.	.	.
16d-	Don't	.	.	.	.	.	.	.	.
16B-Q	_	.	.	.	.	.	.	.	.
[16c	ask	.	.	.	.	.	.	.	.
4.c]	_	2c 2f#	_	2DMm	.	voice	.	103.789	D:7/5
16d	for	.	.	.	.	.	.	.	.
16AQ	_	.	.	.	.	.	.	.	.
[16B-	fa	.	.	.	.	.	A	.	.
=44	=44	=44	=44	=44	=44	=44	=44	=44	=44
*>Letter>C	*>Letter>C	*>Letter>C	*>Letter>C	*>Letter>C	*>Letter>C	*>Letter>C	*>Letter>C	*>Letter>C	*>Letter>C
*>Label>Chorus	*>Label>Chorus	*>Label>Chorus	*>Label>Chorus	*>Label>Chorus	*>Label>Chorus	*>Label>Chorus	*>Label>Chorus	*>Label>Chorus	*>Label>Chorus
16B-]	_	2B- 2g	_	2Gm	newline	voice	.	105.01	G:min
8.G	vors	.	.	.	.	.	.	.	.
8r	.	.	.	.	.	.	.	.	.
8d	don't	.	.	.	.	.	.	.	.
16B-Q	_	.	.	.	.	.	.	.	.
4.c	talk	2A- 2f	_	2B-Mm	.	voice	.	106.235	B-:7/5
16d	to	.	.	.	.	.	.	.	.
[16B-	stran	.	.	.	.	.	A	.	.
=45	=45	=45	=45	=45	=45	=45	=45	=45	=45
16B-]	_	2G 2e	_	2Edm	.	voice	.	107.46	E:hdim7
8.G	gers	.	.	.	.	.	.	.	.
8r	.	.	.	.	.	.	.	.	.
8~cq	_	.	.	.	.	.	.	.	.
16~d-	don't	.	.	.	.	.	.	.	.
[16c	ask	.	.	.	.	.	.	.	.
4.c]	_	2F 2e-	_	2FM	.	voice	.	108.685	F:sus4(b7)
16B-	me	.	.	.	.	.	.	.	.
[16B-	why	.	.	.	.	.	.	.	.
=46	=46	=46	=46	=46	=46	=46	=46	=46	=46
4.B-]	_	1F 1d	_	4B-M	.	voice	.	109.909	B-:maj
.	.	.	.	4E-Mm	.	voice	.	110.522	E-:7/5
8r	.	.	.	.	.	.	.	.	.
2r	.	.	.	4B-M	.	voice	.	111.134	B-:maj
.	.	.	.	4E-Mm	.	voice	.	111.747	E-:7/5
=47	=47	=47	=47	=47	=47	=47	=47	=47	=47
1r	.	1r	.	4B-M	.	voice	.	112.359	B-:maj
.	.	.	.	4E-Mm	.	voice	.	112.971	E-:7/5
.	.	.	.	4B-M	.	voice	.	113.584	B-:maj
.	.	.	.	4E-Mm	.	voice	.	114.196	E-:7/5
=48	=48	=48	=48	=48	=48	=48	=48	=48	=48
*>Letter>D	*>Letter>D	*>Letter>D	*>Letter>D	*>Letter>D	*>Letter>D	*>Letter>D	*>Letter>D	*>Letter>D	*>Letter>D
*>Label>Solo	*>Label>Solo	*>Label>Solo	*>Label>Solo	*>Label>Solo	*>Label>Solo	*>Label>Solo	*>Label>Solo	*>Label>Solo	*>Label>Solo
1r	.	1r	.	1FM	newline	piano	.	114.809	F:maj
=49	=49	=49	=49	=49	=49	=49	=49	=49	=49
1r	.	1r	.	1E-M	.	piano	.	117.275	E-:maj
=50	=50	=50	=50	=50	=50	=50	=50	=50	=50
1r	.	1r	.	1FM	.	piano	.	119.742	F:maj
=51	=51	=51	=51	=51	=51	=51	=51	=51	=51
1r	.	1r	.	1B-M	.	piano	.	122.209	B-:maj
=52	=52	=52	=52	=52	=52	=52	=52	=52	=52
1r	.	1r	.	1GM	newline	piano	.	124.676	G:maj
=53	=53	=53	=53	=53	=53	=53	=53	=53	=53
1r	.	1r	.	1CM	.	piano	.	127.111	C:maj
=54	=54	=54	=54	=54	=54	=54	=54	=54	=54
1r	.	1r	.	1GM	.	piano	.	129.545	G:maj
=55	=55	=55	=55	=55	=55	=55	=55	=55	=55
1r	.	1r	.	2CMm	.	piano	.	131.98	C:7
.	.	.	.	2FMm	.	piano	.	133.197	F:7
=56	=56	=56	=56	=56	=56	=56	=56	=56	=56
*>Letter>B	*>Letter>B	*>Letter>B	*>Letter>B	*>Letter>B	*>Letter>B	*>Letter>B	*>Letter>B	*>Letter>B	*>Letter>B
*>Label>Verse	*>Label>Verse	*>Label>Verse	*>Label>Verse	*>Label>Verse	*>Label>Verse	*>Label>Verse	*>Label>Verse	*>Label>Verse	*>Label>Verse
8.F	Yes	1r	.	1B-M	newline	voice	.	134.414	B-:maj
[16G	ter	.	.	.	.	.	.	.	.
8G]	_	.	.	.	.	.	.	.	.
[8B-	day	.	.	.	.	.	A	.	.
16B-]	_	.	.	.	.	.	.	.	.
8.F	you	.	.	.	.	.	.	.	.
8G	were	.	.	.	.	.	.	.	.
8B-	an	.	.	.	.	.	.	.	.
=57	=57	=57	=57	=57	=57	=57	=57	=57	=57
8.G	on-	1r	.	1CMm	.	voice	.	136.878	C:7
[16A	-ly	.	.	.	.	.	.	.	.
8A]	_	.	.	.	.	.	.	.	.
[8c	child	.	.	.	.	.	G	.	.
8c]	_	.	.	.	.	.	.	.	.
8r	.	.	.	.	.	.	.	.	.
4r	.	.	.	.	.	.	.	.	.
=58	=58	=58	=58	=58	=58	=58	=58	=58	=58
8.c	now	1r	.	1FMm	.	voice	.	139.341	F:7
[16d	your	.	.	.	.	.	.	.	.
8d]	_	.	.	.	.	.	.	.	.
8f	ghosts	.	.	.	.	.	.	.	.
16r	.	.	.	.	.	.	.	.	.
8.c	have	.	.	.	.	.	.	.	.
8d	gone	.	.	.	.	.	.	.	.
8f	a	.	.	.	.	.	.	.	.
=59	=59	=59	=59	=59	=59	=59	=59	=59	=59
8cq	_	.	.	.	.	.	.	.	.
8d	way	1r	.	2B-M	.	voice	A	141.804	B-:maj
8r	.	.	.	.	.	.	.	.	.
8r	.	.	.	.	.	.	.	.	.
16~d-	oh	.	.	.	.	.	.	.	.
[16c	_	.	.	.	.	.	.	.	.
4c]	_	.	.	2E-M	.	voice	.	143.036	E-:maj/5
16~d-	_	.	.	.	.	.	.	.	.
16c	_	.	.	.	.	.	.	.	.
16B-	_	.	.	.	.	.	.	.	.
16G	_	.	.	.	.	.	.	.	.
=60	=60	=60	=60	=60	=60	=60	=60	=60	=60
8.F	you	1r	.	1B-M	newline	voice	.	144.268	B-:maj
[16G	can	.	.	.	.	.	.	.	.
8G]	_	.	.	.	.	.	.	.	.
8B-	kill	.	.	.	.	.	.	.	.
16r	.	.	.	.	.	.	.	.	.
8.F	them	.	.	.	.	.	.	.	.
8G	in	.	.	.	.	.	.	.	.
8B-	the	.	.	.	.	.	.	.	.
=61	=61	=61	=61	=61	=61	=61	=61	=61	=61
8.G	clas-	1r	.	1CMm	.	voice	.	146.706	C:7
[16A	-sic	.	.	.	.	.	.	.	.
8A]	_	.	.	.	.	.	.	.	.
[8c	style	.	.	.	.	.	G	.	.
8c]	_	.	.	.	.	.	.	.	.
8r	.	.	.	.	.	.	.	.	.
4r	.	.	.	.	.	.	.	.	.
=62	=62	=62	=62	=62	=62	=62	=62	=62	=62
8.c	now	1r	.	1FMm	.	voice	.	149.144	F:7
[16d	you	.	.	.	.	.	.	.	.
8d]	_	.	.	.	.	.	.	.	.
[8f	par-	.	.	.	.	.	.	.	.
16f]	_	.	.	.	.	.	.	.	.
8.c	-lez	.	.	.	.	.	A	.	.
8d	vous	.	.	.	.	.	.	.	.
8f	fran-	.	.	.	.	.	.	.	.
=63	=63	=63	=63	=63	=63	=63	=63	=63	=63
8cq	_	.	.	.	.	.	.	.	.
8d	-cais	2d 2f	Ooh	2B-M	.	voice	A	151.582	B-:maj
4r	.	.	.	.	.	.	.	.	.
8d	don't	.	.	.	.	.	.	.	.
8B-q	_	.	.	.	.	.	.	.	.
[4c	look	2c 2f#	_	2DMm	.	voice	.	152.801	D:7/5
16c]	_	.	.	.	.	.	.	.	.
8d	for	.	.	.	.	.	.	.	.
[16B-	an	.	.	.	.	.	(E	.	.
=64	=64	=64	=64	=64	=64	=64	=64	=64	=64
*>Letter>C	*>Letter>C	*>Letter>C	*>Letter>C	*>Letter>C	*>Letter>C	*>Letter>C	*>Letter>C	*>Letter>C	*>Letter>C
*>Label>Chorus	*>Label>Chorus	*>Label>Chorus	*>Label>Chorus	*>Label>Chorus	*>Label>Chorus	*>Label>Chorus	*>Label>Chorus	*>Label>Chorus	*>Label>Chorus
16B-]	_	2B- 2g	_	2Gm	newline	voice	.	154.02	G:min
8G	swers	.	.	.	.	.	e)	.	.
16r	.	.	.	.	.	.	.	.	.
8r	.	.	.	.	.	.	.	.	.
16B-	you	.	.	.	.	.	.	.	.
16B-Q	_	.	.	.	.	.	.	.	.
[16c	took	.	.	.	.	.	.	.	.
4c_	_	2A- 2f	_	2B-Mm	.	voice	.	155.242	B-:7/5
16c]	_	.	.	.	.	.	.	.	.
8d	your	.	.	.	.	.	.	.	.
[16B-	chan	.	.	.	.	.	(E	.	.
=65	=65	=65	=65	=65	=65	=65	=65	=65	=65
16B-]	_	2G 2e	_	2Edm	.	voice	.	156.464	E:hdim7
8.G	ces	.	.	.	.	.	e)	.	.
8r	.	.	.	.	.	.	.	.	.
16d	don't	.	.	.	.	.	.	.	.
[16f	ask	.	.	.	.	.	.	.	.
16f]	_	2F 2e-	_	2FM	.	voice	.	157.686	F:sus4(b7)
32c	_	.	.	.	.	.	.	.	.
32d	_	.	.	.	.	.	.	.	.
[8c	_	.	.	.	.	.	.	.	.
8c]	_	.	.	.	.	.	.	.	.
16B-	me	.	.	.	.	.	.	.	.
[16B-	why!	.	.	.	.	.	.	.	.
=66	=66	=66	=66	=66	=66	=66	=66	=66	=66
1B-]	_	1F 1d	_	4B-M	.	voice	.	158.908	B-:maj
.	.	.	.	4E-Mm	.	voice	.	159.519	E-:7/5
.	.	.	.	4B-M	.	voice	.	160.13	B-:maj
.	.	.	.	4E-Mm	.	voice	.	160.741	E-:7/5
=67	=67	=67	=67	=67	=67	=67	=67	=67	=67
2r	.	2r	.	4B-M	.	voice	.	161.352	B-:maj
.	.	.	.	4E-Mm	.	voice	.	161.964	E-:7/5
8r	.	8r	.	4B-M	.	voice	.	162.575	B-:maj
16F	Don't	16B-	Don't	.	.	.	.	.	.
[16G	ask	[16c	ask	.	.	.	.	.	.
8G]	_	8c]	_	4E-Mm	.	voice	.	163.186	E-:7/5
16F	me	16B-	me	.	.	.	.	.	.
[16BB-	why	[16F	why	.	.	.	.	.	.
=68	=68	=68	=68	=68	=68	=68	=68	=68	=68
*>Letter>A2	*>Letter>A2	*>Letter>A2	*>Letter>A2	*>Letter>A2	*>Letter>A2	*>Letter>A2	*>Letter>A2	*>Letter>A2	*>Letter>A2
*>Label>Outro	*>Label>Outro	*>Label>Outro	*>Label>Outro	*>Label>Outro	*>Label>Outro	*>Label>Outro	*>Label>Outro	*>Label>Outro	*>Label>Outro
1BB-]	_	1F]	_	4B-M	newline	voice	.	163.797	B-:maj
.	.	.	.	4E-Mm	.	voice	.	164.403	E-:7/5
.	.	.	.	4B-M	.	voice	.	165.01	B-:maj
.	.	.	.	4E-Mm	.	voice	.	165.617	E-:7/5
=69	=69	=69	=69	=69	=69	=69	=69	=69	=69
1r	.	1r	.	4B-M	.	voice	.	166.224	B-:maj
.	.	.	.	4E-Mm	.	voice	.	166.83	E-:7/5
.	.	.	.	2B-M	.	voice	.	167.437	B-:maj
r;	.	r;	.	1r;	.	r	.	179.086	N.C.
*-	*-	*-	*-	*-	*-	*-	*-	*-	*-
!!!BillboardChartDate: 1980/10/18
!!!BillboardPeak: 19
!!!BillboardWeeksOnChart: 15
!!!COC: Billy Joel
!!!ENC: Nathaniel Condit-Schultz
!!!EST: Awating manual error checking and editing.
!!!OTL: Don't Ask Me Why
!!!RDF**chordsym: original McGill chord annotation + (implied pitch class set, with bass pitch in first position)
!!!RDF**harmony: **recip + pitch class of root + harmonic quality
!!!RDF**leadinstrument: original McGill primary instrumentation annotation
!!!RDF**phrase: newline = linebreak in original McGill transcription
!!!RDF**timestamp: McGill audio timestamp in seconds
!!!RDT: 2017/01/12/
!!!SampleActualRank: 57
!!!SampleID#: 0969
!!!SampleTargetRank: 58
